public/assets/img/com/ico-my.svg

<svg width="30" height="30" viewBox="0 0 30 30" fill="none" xmlns="http://www.w3.org/2000/svg">
<g clip-path="url(#clip0_310_357)">
<path d="M15 16.25C17.995 16.25 20.7188 17.1175 22.7225 18.3387C23.7225 18.9513 24.5775 19.67 25.195 20.4513C25.8025 21.2213 26.25 22.1413 26.25 23.125C26.25 24.1812 25.7362 25.0138 24.9963 25.6075C24.2962 26.17 23.3725 26.5425 22.3913 26.8025C20.4188 27.3237 17.7863 27.5 15 27.5C12.2137 27.5 9.58125 27.325 7.60875 26.8025C6.6275 26.5425 5.70375 26.17 5.00375 25.6075C4.2625 25.0125 3.75 24.1812 3.75 23.125C3.75 22.1413 4.1975 21.2213 4.805 20.4513C5.4225 19.67 6.27625 18.9513 7.2775 18.3387C9.28125 17.1175 12.0063 16.25 15 16.25ZM15 2.5C16.6576 2.5 18.2473 3.15848 19.4194 4.33058C20.5915 5.50269 21.25 7.0924 21.25 8.75C21.25 10.4076 20.5915 11.9973 19.4194 13.1694C18.2473 14.3415 16.6576 15 15 15C13.3424 15 11.7527 14.3415 10.5806 13.1694C9.40848 11.9973 8.75 10.4076 8.75 8.75C8.75 7.0924 9.40848 5.50269 10.5806 4.33058C11.7527 3.15848 13.3424 2.5 15 2.5Z" fill="#B1B1B1"/>
</g>
<defs>
<clipPath id="clip0_310_357">
<rect width="30" height="30" fill="white"/>
</clipPath>
</defs>
</svg>

<svg xmlns="http://www.w3.org/2000/svg" width="30" height="30" fill="none" viewBox="0 0 30 30"><g clip-path="url(#a)"><path fill="#b1b1b1" d="M15 16.25c2.995 0 5.719.867 7.723 2.089 1 .612 1.855 1.331 2.472 2.112.607.77 1.055 1.69 1.055 2.674 0 1.056-.514 1.889-1.254 2.483-.7.562-1.623.934-2.605 1.194-1.972.522-4.605.698-7.391.698s-5.419-.175-7.391-.698c-.981-.26-1.905-.632-2.605-1.194-.741-.596-1.254-1.427-1.254-2.483 0-.984.447-1.904 1.055-2.674.618-.781 1.471-1.5 2.473-2.112C9.28 17.118 12.006 16.25 15 16.25M15 2.5A6.25 6.25 0 1 1 15 15a6.25 6.25 0 0 1 0-12.5"/></g><defs><clipPath id="a"><path fill="#fff" d="M0 0h30v30H0z"/></clipPath></defs></svg>
